X: 1
T: The Hag At The Spinning Wheel
R: jig
M: 6/8
L: 1/8
K: Gmaj
D|:GBG BcA|BcA B2D|GBG BcA|F2G AFD|
GBG BcA|BcA Bge|fed cAF|1GAG G2D:|2GAG Gdc||
|:BAG AFD|~D3 AFD|~D3 AFD|EFG ABc|
BAG AFD| ~D3 FEF|ded cAF|1GAG Gdc:|2GAG G2D||
|:GBd gba|gdB ecA|ded cAG|F2G AFD|
GBd gba|gdB ede|fed cAF|1GAG G2D:|2GAG Gdc||
|:BAG Aed|Bed Aed|Bed AFD|EFG ABc|
BAG AFD|~D3 FEF|ded cAF|1GAG Gdc:|2GAG G2D||


Tune 2254	Setting 15624

